X:1
T:Chilly Scenes of Winter
M:2/2
L:1/4
K:A
 z2 z F| E3/2 D/2 C E| A2 c B| A/2 A F/2E/2 E/2 A,| C4| z C/2B,/2
M:2/2
| A,2 C E/2E/2| E2 AF/2-E/2| E3/2 C/2 D B,| A,4|
